svgs/aurora_store.svg

<svg width="192" height="192" viewBox="0 0 192 192" fill="none" xmlns="http://www.w3.org/2000/svg"><path d="M60 78H29.781c-5.056 0-8.844 4.632-7.84 9.587l13.761 68A8 8 0 0 0 43.543 162h104.914a8 8 0 0 0 7.841-6.413l13.762-68c1.003-4.956-2.785-9.587-7.841-9.587H129.5M60 78h69.5M60 78l29.063-44.402c3.22-4.919 10.468-4.801 13.526.22L129.5 78" stroke="#000" stroke-width="12" stroke-linecap="round" stroke-linejoin="round"/><path d="m73 138 23-36 23 36H73Z" stroke="#000" stroke-width="12" stroke-linecap="round" stroke-linejoin="round"/></svg>

<svg id="vector" xmlns="http://www.w3.org/2000/svg" width="192" height="192" viewBox="0 0 192 192"><path fill="#00000000" d="M60,78H29.781C24.725,78 20.937,82.632 21.94,87.587L35.702,155.587C36.457,159.318 39.737,162 43.543,162H148.457C152.263,162 155.543,159.318 156.298,155.587L170.06,87.587C171.063,82.632 167.275,78 162.219,78H129.5M60,78H96H129.5M60,78L89.063,33.598C92.283,28.679 99.531,28.797 102.589,33.818L129.5,78" stroke-linejoin="round" stroke-width="12" stroke="#000000" stroke-linecap="round" id="path_0"/><path fill="#00000000" d="M73,138L96,102L119,138H73Z" stroke-linejoin="round" stroke-width="12" stroke="#000000" stroke-linecap="round" id="path_1"/></svg>
